X: 28
T: No_126_"I_Am_Going_To_Be_a_Fisherman".krn
N: Derived from No_126_"I_Am_Going_To_Be_a_Fisherman".krn
%%abc-version 2.0
%%abcx-abcm2ps-target-version 5.9.1 (29 Sep 2008)
%%abc-creator hum2abc beta
%%abcx-conversion-date 2019/03/15 08:36:13
%%humdrum-veritas 1093652082
%%humdrum-veritas-data 576550022
%%linebreak <none>
%%barnumbers 0
L: 1/8
M: 2/4
K: F clef=bass
[K:clef=bass][M:2/4]C4- [I:setbarnb 2]| 
C2(3DCC | 
C4- | 
C z (3CCC | 
C2B,2 | 
A,2A, z/ C/ ||  
[M:3/4]C7/B,/ C3/B,/ | 
A,A,-A,2A, z ||  
[M:2/4]A,3/C/ =B,3/C/ | 
C2B, z | 
A,4 | 
A,2A, z | 
A,2CC :|]  



